!!!SOCIAL_FUNCTION:	moccasin game songs
!!!PDT:	1909
!!!OTL: No_175_He_Gave_Us_a_Double_Crack.krn
!!!REG: Great_Lakes
!!!LANG: Non-Tone
!!!LING_GROUP: Algonquin
**kern	**kern
*staff2	*staff1
=1-	=1-
*clefF4	*clefG2
*k[f#c#g#d#]	*k[f#c#g#d#]
*M3/4	*M3/4
12GG#^/	4b\
12r	.
12GG#/	.
12GG#^/	4g#/
12r	.
12GG#/	.
12GG#^/	16b/LK
.	8.g#/J
12r	.
12GG#/	.
=2	=2
2.r	16e/LK
.	8.e/J
.	2e/
=3	=3
2.r	8g#/L
.	8e/J
.	4.f#/
.	16g#/LL
.	16f#/JJ
=4	=4
2.r	12e/L
.	12c#/
.	12c#/J
.	2c#/
=5	=5
4r	16e/LL
.	16f#/
.	16e/
.	16c#/JJ
8.r	(8.e/
16G#\	16r
12G#\L	4r
12F#\	.
12E\J	.
=6	=6
2.F#\	2.r
=7	=7
.	2.r
Bq/	.
4.G#\	.
16F#\LL	.
16E\JJ	.
8F#\L	.
8E\J	.
=8	=8
16C#/LK	2.r
8.C#/J	.
2C#/	.
==	==
*-	*-
